src/img/icons/clip.svg

<!-- Generated by IcoMoon.io -->
<svg version="1.1" xmlns="http://www.w3.org/2000/svg" width="1024" height="1024" viewBox="0 0 1024 1024">
<title></title>
<g id="icomoon-ignore">
</g>
<path fill="#000" d="M734.99 0.022c-76.647-0.006-150.163 30.432-204.371 84.622l-139.356 139.357c-20.523 20.523-20.523 53.797 0 74.32s53.797 20.523 74.32 0l139.35-139.35c34.496-34.48 81.272-53.849 130.046-53.843 48.779 0.004 95.556 19.383 130.046 53.873s53.871 81.268 53.871 130.044c0.005 48.774-19.37 95.559-53.851 130.053l-139.342 139.344c-20.522 20.522-20.522 53.797 0 74.319s53.797 20.522 74.319 0l139.358-139.357c54.186-54.208 84.63-127.72 84.619-204.37-0.005-76.649-30.454-150.157-84.656-204.355-54.198-54.199-127.707-84.65-204.354-84.657zM716.371 307.598c20.522 20.523 20.522 53.797 0 74.32l-334.439 334.438c-20.523 20.527-53.797 20.527-74.32 0-20.523-20.522-20.523-53.792 0-74.319l334.44-334.438c20.522-20.523 53.797-20.523 74.319 0zM298.298 391.243c20.523 20.523 20.523 53.797 0 74.32l-139.343 139.344c-34.48 34.496-53.855 81.277-53.851 130.051 0.004 48.779 19.383 95.556 53.873 130.046s81.268 53.871 130.044 53.871c48.776 0.005 95.557-19.365 130.053-53.851l139.344-139.342c20.522-20.522 53.797-20.522 74.319 0s20.522 53.797 0 74.319l-139.351 139.353c-54.208 54.186-127.727 84.636-204.376 84.624-76.649-0.005-150.157-30.454-204.355-84.656-54.199-54.198-84.65-127.707-84.657-204.354s30.432-150.163 84.622-204.371l139.357-139.356c20.523-20.523 53.797-20.523 74.32 0z"></path>
</svg>

<svg xmlns="http://www.w3.org/2000/svg" viewBox="0 0 1024 1024"><path d="M734.99.022a289.043 289.043 0 0 0-204.371 84.622L391.263 224.001c-20.523 20.523-20.523 53.797 0 74.32s53.797 20.523 74.32 0l139.35-139.35a183.932 183.932 0 0 1 260.112 260.127L725.703 558.442c-20.522 20.522-20.522 53.797 0 74.319s53.797 20.522 74.319 0L939.38 493.404a289.029 289.029 0 0 0 84.619-204.37 289.014 289.014 0 0 0-84.656-204.355A289.037 289.037 0 0 0 734.989.022zm-18.619 307.576c20.522 20.523 20.522 53.797 0 74.32L381.932 716.356c-20.523 20.527-53.797 20.527-74.32 0-20.523-20.522-20.523-53.792 0-74.319l334.44-334.438c20.522-20.523 53.797-20.523 74.319 0zm-418.073 83.645c20.523 20.523 20.523 53.797 0 74.32L158.955 604.907a183.932 183.932 0 0 0 260.119 260.117l139.344-139.342c20.522-20.522 53.797-20.522 74.319 0s20.522 53.797 0 74.319L493.386 939.354a289.045 289.045 0 0 1-408.731-.032 289.037 289.037 0 0 1-.035-408.725l139.357-139.356c20.523-20.523 53.797-20.523 74.32 0z"/></svg>
